X: 30
T: the Earl's Chair
R: reel
Z: 2012 John Chambers <jc@trillian.mit.edu>
B: "100 Essential Irish Session Tunes" 1995 Dave Mallinson, ed.
M: 4/4
L: 1/8
K: D
A !segno!|\
"G"B2dA BAFA | B2dA BAFB | "D"AF~F2 DF~F2 | AFdB ADFA |\
"G"B2dA BAFA | B2dA BAFB | "D"A3B defd | "A"edef "Bm"B3 :|
Bd |:\
"A"e3f "Bm"d2Bd | edef "G"dBAB | e3f "Bm"d3e | "D"fedB ADFA |\
"A"e3f "Bm"eB~B2 | "G"gB~B2 | defg | "D"afbf afde | "D"fedB ADFA "_D.S.":|

%%sep 2 1 500
%%sep 1 1 500

